P3
8 8
255
64 55 61   82 68 67   70 60 64   92 76 70   68 58 63   86 71 68   72 62 65   96 78 70
78 65 66   58 51 58   88 72 68   66 57 62   91 74 69   63 55 60   84 70 67   69 59 63
61 53 60   87 71 68   67 57 62   96 77 70   70 60 64   89 73 68   65 56 61   82 68 66
90 73 68   66 57 62   80 67 66   59 52 59   85 70 67   69 59 63   94 76 70   65 56 61
68 58 63   93 75 69   62 54 60   83 69 67   72 61 64   97 78 70   66 57 62   86 71 68
84 69 67   64 55 61   91 74 69   70 60 64   79 66 65   60 52 59   89 72 68   67 58 62
63 54 60   88 72 68   69 59 63   95 77 70   65 56 61   84 70 67   71 61 64   92 75 69
96 78 70   68 58 63   82 68 66   61 53 60   90 73 68   66 57 62   86 71 68   64 55 61
